components/icon/svg/24/av_fast-backward.svg

<?xml version="1.0" encoding="UTF-8"?>
<svg width="24px" height="24px" viewBox="0 0 24 24" version="1.1" xmlns="http://www.w3.org/2000/svg" xmlns:xlink="http://www.w3.org/1999/xlink">
    <!-- Generator: Sketch 64 (93537) - https://sketch.com -->
    <title>ic-db_av_fast-backward_24</title>
    <desc>Created with Sketch.</desc>
    <g id="Symbols" stroke="none" stroke-width="1" fill="none" fill-rule="evenodd">
        <g id="24dp-Icon/AV/Fast-Backward" fill="#282D37">
            <path d="M22.1435358,13.0168539 C22.1435358,8.89223783 18.9493723,5.44998008 14.8247562,5.10880091 L15.2279589,4.70569741 C15.4449917,4.51962674 15.5690388,4.24047112 15.5690388,3.96141474 C15.5690388,3.43416489 15.1039118,3 14.5456998,3 C14.3285677,3 14.0804735,3.06202356 13.8944028,3.21713207 L11.6305926,5.51200364 C11.444522,5.69807431 11.351437,5.91510714 11.351437,6.19426276 C11.351437,6.47331914 11.444522,6.72141336 11.6305926,6.90748403 L13.8014171,9.10936989 C13.9874878,9.29544056 14.235582,9.38842628 14.5456998,9.38842628 C15.0728504,9.38842628 15.5070153,8.92329922 15.5070153,8.39604938 C15.5070153,8.14795515 15.4140296,7.89986093 15.1968975,7.71379026 L14.6386855,7.0935547 C17.7398633,7.31068677 20.158782,9.91567612 20.158782,13.0478161 C20.158782,14.5674428 19.5385464,16.0869703 18.3911603,17.2654179 C18.2050896,17.4514886 18.1120046,17.6995828 18.1120046,17.947677 C18.1120046,18.505889 18.5772309,18.9400539 19.1043815,18.9400539 C19.3524758,18.9400539 19.60057,18.8470682 19.7866406,18.6609975 C21.3372296,17.1104086 22.1435358,15.0945934 22.1435358,13.0168539 Z M3,19.0076231 C3,18.4803733 3.43416489,18.0152462 3.9923769,18.0152462 L4.98475379,18.0152462 L4.98475379,14.052654 L4.51962674,14.331809 C4.36451823,14.4247947 4.17844757,14.486819 3.9923769,14.486819 C3.43416489,14.486819 3.0310614,14.0216918 3.0310614,13.494442 C3.0310614,13.1843242 3.15510851,12.8742058 3.43416489,12.657173 L5.41891869,11.354679 C5.5740272,11.261594 5.76009786,11.19957 5.94616853,11.19957 C6.50438054,11.19957 6.96950759,11.633735 6.96950759,12.191947 L6.96950759,18.0152462 L7.99294588,18.0152462 C8.55115789,18.0152462 8.98532278,18.4803733 8.98532278,19.0076231 C8.98532278,19.5658351 8.55115789,20 7.99294588,20 L3.9923769,20 C3.43416489,20 3,19.5658351 3,19.0076231 Z M12.9771307,11 C14.7448517,11 15.9542614,12.3335561 15.9542614,14.3183099 L15.9542614,16.58212 C15.9542614,18.5668738 14.7448517,19.9004299 12.9771307,19.9004299 C11.1784476,19.9004299 10,18.5668738 10,16.6131814 L10,14.2562863 C10,12.2715325 11.1784476,11 12.9771307,11 Z M13,13 C12.375,13 12,13.4717437 12,14.257849 L12,16.6792586 C12,17.5282563 12.375,18 13,18 C13.625,18 14,17.5282563 14,16.647762 L14,14.352238 C14,13.5031396 13.625,13 13,13 Z" id="🎨-Color"></path>
        </g>
    </g>
</svg>

<svg width="24" height="24" xmlns="http://www.w3.org/2000/svg"><path d="M22.144 13.017c0-4.125-3.195-7.567-7.32-7.908l.404-.403a.99.99 0 00.341-.745c0-.527-.465-.961-1.023-.961a1.03 1.03 0 00-.652.217l-2.263 2.295a.912.912 0 00-.28.682c0 .28.094.527.28.713L13.8 9.11c.186.186.435.28.745.28.527 0 .961-.466.961-.993a.88.88 0 00-.31-.682l-.558-.62c3.1.217 5.52 2.822 5.52 5.954 0 1.52-.62 3.039-1.768 4.217a.962.962 0 00-.279.683 1 1 0 00.992.992.962.962 0 00.683-.279 7.937 7.937 0 002.357-5.644zM3 19.007a1 1 0 01.992-.992h.993v-3.962l-.465.279a1.046 1.046 0 01-.528.155c-.558 0-.96-.465-.96-.993 0-.31.123-.62.402-.837l1.985-1.302c.155-.093.341-.155.527-.155.558 0 1.024.434 1.024.992v5.823h1.023a1 1 0 01.992.993.98.98 0 01-.992.992h-4A.98.98 0 013 19.008zM12.977 11c1.768 0 2.977 1.334 2.977 3.318v2.264c0 1.985-1.21 3.318-2.977 3.318-1.799 0-2.977-1.333-2.977-3.287v-2.357C10 12.272 11.178 11 12.977 11zM13 13c-.625 0-1 .472-1 1.258v2.421c0 .85.375 1.321 1 1.321s1-.472 1-1.352v-2.296c0-.849-.375-1.352-1-1.352z" fill="#282D37" fill-rule="evenodd"/></svg>
